X: 1
T:Declaration Schottische
M:4/4
L:1/8
C:Taz Tarry
S:Copyright B.Tarry, 15th. February 1997
R:Schottische
K:D
DFAF GB2B|Acef gfed|DFAF GB2B|1Acec dcBA|2Acecd2d2||!
f2 e/2<d/2 sggs f ed|cABc dcBA|f2 e/2<d/2 sggs f ed|cABd d2d2:|
